chat/images/apps/line.svg

<?xml version="1.0" encoding="UTF-8" standalone="no"?>
<svg width="26px" height="26px" viewBox="0 0 26 26" version="1.1" xmlns="http://www.w3.org/2000/svg" xmlns:xlink="http://www.w3.org/1999/xlink" xmlns:sketch="http://www.bohemiancoding.com/sketch/ns">
    <!-- Generator: Sketch 3.4.4 (17249) - http://www.bohemiancoding.com/sketch -->
    <title>Line</title>
    <desc>Created with Sketch.</desc>
    <defs></defs>
    <g id="Page-1" stroke="none" stroke-width="1" fill="none" fill-rule="evenodd" sketch:type="MSPage">
        <g id="Line" sketch:type="MSArtboardGroup">
            <circle id="Oval-61" fill="#3ACE01" sketch:type="MSShapeGroup" cx="13" cy="13" r="12"></circle>
            <path d="M12.7763133,5 C17.6233849,5 21.5526899,8.14642027 21.5526899,12.0277251 C21.5526899,13.3834461 21.0729411,14.6492459 20.2424361,15.7227916 C20.2013383,15.7839 20.1476388,15.8514043 20.0799446,15.9260009 L20.0748153,15.9315735 C19.7911201,16.2709945 19.4716464,16.589645 19.1203836,16.8837888 C16.6933966,19.1270705 12.6986137,21.7978581 12.1713713,21.3858035 C11.7130263,21.0276383 12.9262665,19.2757572 11.5265347,18.9842097 C11.4288878,18.9730012 11.3314942,18.9609695 11.2349239,18.9472913 L11.2330875,18.9471647 L11.2330875,18.947038 C7.12197689,18.3629932 4,15.4873499 4,12.0277251 C3.99987335,8.14642027 7.92924168,5 12.7763133,5 L12.7763133,5 Z" id="Shape" fill="#FFFFFF" sketch:type="MSShapeGroup"></path>
            <path d="M7.45771179,14.3103304 L7.48715783,14.3103304 L7.49589666,14.3103304 L9.22776713,14.3103304 C9.47954661,14.3103304 9.68547892,14.1043348 9.68547892,13.8525553 L9.68547892,13.8143705 C9.68547892,13.562591 9.47954661,13.3566587 9.22776713,13.3566587 L7.95360845,13.3566587 L7.95360845,10.4577118 C7.95360845,10.2059323 7.74767614,10 7.49589666,10 L7.45771179,10 C7.20593231,10 7,10.2059323 7,10.4577118 L7,13.852492 C7,14.1043348 7.20593231,14.3103304 7.45771179,14.3103304 L7.45771179,14.3103304 L7.45771179,14.3103304 Z M18.425887,12.1824266 L18.425887,12.1442417 C18.425887,11.8924622 18.2198914,11.6865299 17.9681119,11.6865299 L16.6940166,11.6865299 L16.6940166,10.9617773 L17.9681119,10.9617773 C18.2198914,10.9617773 18.425887,10.755845 18.425887,10.5040656 L18.425887,10.4658807 C18.425887,10.2141012 18.2198914,10.0081689 17.9681119,10.0081689 L16.2362415,10.0081689 L16.2275026,10.0081689 L16.1980566,10.0081689 C15.9462771,10.0081689 15.7403448,10.2141012 15.7403448,10.4658807 L15.7403448,13.8606609 C15.7403448,14.1124404 15.9462771,14.318436 16.1980566,14.318436 L16.2275026,14.318436 L16.2362415,14.318436 L17.9681119,14.318436 C18.2198914,14.318436 18.425887,14.1124404 18.425887,13.8606609 L18.425887,13.822476 C18.425887,13.5706966 18.2198914,13.3647642 17.9681119,13.3647642 L16.6940166,13.3647642 L16.6940166,12.6400117 L17.9681119,12.6400117 C18.2198914,12.6401383 18.425887,12.4341427 18.425887,12.1824266 L18.425887,12.1824266 L18.425887,12.1824266 Z M15.0218614,14.1738655 L15.021988,14.1736755 C15.1036771,14.0908466 15.1543369,13.9773685 15.1543369,13.8526187 L15.1543369,10.4578384 C15.1543369,10.206059 14.9484046,10.0001266 14.6965618,10.0001266 L14.6583769,10.0001266 C14.4065975,10.0001266 14.2006651,10.206059 14.2006651,10.4578384 L14.2006651,12.4506072 L12.5462409,10.2315789 C12.4672116,10.0935941 12.3183982,10.0001266 12.1488144,10.0001266 L12.1106295,10.0001266 C11.85885,10.0001266 11.6528544,10.206059 11.6528544,10.4578384 L11.6528544,13.8526187 C11.6528544,14.1043981 11.8587867,14.3103938 12.1106295,14.3103938 L12.1488144,14.3103938 C12.4005938,14.3103938 12.6065262,14.1043981 12.6065262,13.8526187 L12.6065262,11.8225516 L14.2728554,14.0985089 C14.2831141,14.1144668 14.2943226,14.1297914 14.3064176,14.1443561 L14.3064809,14.1444827 C14.3522648,14.206921 14.414893,14.2497286 14.484677,14.2758817 C14.5383131,14.2980454 14.5969519,14.3103304 14.6583136,14.3103304 L14.6964985,14.3103304 C14.7736281,14.3103304 14.8463883,14.290953 14.9103464,14.2568843 C14.9561302,14.2351006 14.9946951,14.2069843 15.0218614,14.1738655 L15.0218614,14.1738655 L15.0218614,14.1738655 Z M10.5126277,14.3103304 L10.5508126,14.3103304 C10.802592,14.3103304 11.0085244,14.1043348 11.0085244,13.8525553 L11.0085244,10.4577751 C11.0085244,10.2059956 10.802592,10.0000633 10.5508126,10.0000633 L10.5126277,10.0000633 C10.2608482,10.0000633 10.0548526,10.2059956 10.0548526,10.4577751 L10.0548526,13.8525553 C10.0548526,14.1043348 10.2608482,14.3103304 10.5126277,14.3103304 L10.5126277,14.3103304 Z" id="Shape" fill="#3ACE01" sketch:type="MSShapeGroup"></path>
        </g>
    </g>
</svg>

<svg xmlns="http://www.w3.org/2000/svg" viewBox="0 0 26 26">
  <g fill="none" fill-rule="evenodd">
    <circle cx="13" cy="13" r="12" fill="#3ACE01"/>
    <path fill="#FFF" d="M12.776 5c4.847 0 8.777 3.146 8.777 7.028 0 1.355-.48 2.62-1.31 3.695-.042.06-.095.128-.163.203l-.005.006c-.284.34-.603.658-.955.952-2.427 2.243-6.42 4.914-6.95 4.502-.457-.358.756-2.11-.643-2.402-.098-.01-.196-.023-.292-.037h-.002C7.123 18.363 4 15.487 4 12.027 4 8.148 7.93 5 12.776 5z"/>
    <path fill="#3ACE01" d="M7.458 14.31h1.77c.252 0 .457-.206.457-.457v-.04c0-.25-.205-.456-.457-.456H7.954v-2.9c0-.25-.206-.457-.458-.457h-.038c-.252 0-.458.206-.458.458v3.394c0 .252.206.458.458.458zm10.968-2.128v-.038c0-.252-.206-.457-.458-.457h-1.274v-.725h1.274c.252 0 .458-.206.458-.458v-.038c0-.252-.206-.458-.458-.458h-1.77c-.252 0-.458.206-.458.458v3.395c0 .252.206.458.458.458h1.77c.252 0 .458-.206.458-.457v-.038c0-.25-.206-.457-.458-.457h-1.274v-.725h1.274c.252 0 .458-.206.458-.458zm-3.404 1.992c.082-.083.132-.197.132-.32v-3.396c0-.252-.206-.458-.457-.458h-.04c-.25 0-.456.206-.456.458v1.993l-1.654-2.218c-.08-.138-.228-.232-.397-.232h-.04c-.25 0-.457.206-.457.458v3.395c0 .25.206.457.458.457h.04c.25 0 .457-.206.457-.457v-2.03l1.666 2.276c.01.014.02.03.033.044.046.063.11.106.18.132.052.022.11.034.172.034h.038c.078 0 .15-.02.214-.053.046-.022.085-.05.112-.083zm-4.51.136h.04c.25 0 .457-.206.457-.457v-3.395c0-.252-.207-.458-.46-.458h-.037c-.252 0-.458.206-.458.458v3.395c0 .25.206.457.458.457z"/>
  </g>
</svg>
